usr/share/icons/biglinux-icons-material/24/actions/view-certificate.svg

<svg xmlns="http://www.w3.org/2000/svg" viewBox="0 0 24 24"><path d="M4 6v12h16V6H4zm1 1h14v10H5V7zm3.5 1C7.669 8 7 8.669 7 9.5V11H6v3h5v-3h-1V9.5C10 8.669 9.331 8 8.5 8zm0 1c.277 0 .5.223.5.5V11H8V9.5c0-.277.223-.5.5-.5zM12 9v1h6V9h-6zm0 2v1h5v-1h-5zm0 2v1h4v-1h-4z" style="fill:currentColor;fill-opacity:1;stroke:none;color:#dedede"/></svg>

<svg xmlns="http://www.w3.org/2000/svg" viewBox="0 0 24 24">
  <defs id="defs3051">
    <style type="text/css" id="current-color-scheme">
      .ColorScheme-Text {
        color:#dedede;
      }
      </style>
  </defs>
 <path style="fill:currentColor;fill-opacity:1;stroke:none" 
     d="M 4 6 L 4 18 L 20 18 L 20 6 L 4 6 z M 5 7 L 19 7 L 19 17 L 5 17 L 5 7 z M 8.5 8 C 7.669 8 7 8.669 7 9.5 L 7 11 L 6 11 L 6 14 L 11 14 L 11 11 L 10 11 L 10 9.5 C 10 8.669 9.331 8 8.5 8 z M 8.5 9 C 8.777 9 9 9.223 9 9.5 L 9 11 L 8 11 L 8 9.5 C 8 9.223 8.223 9 8.5 9 z M 12 9 L 12 10 L 18 10 L 18 9 L 12 9 z M 12 11 L 12 12 L 17 12 L 17 11 L 12 11 z M 12 13 L 12 14 L 16 14 L 16 13 L 12 13 z "
     class="ColorScheme-Text"
     />
</svg>
